src/assets/member/crown.svg

<svg width="80" height="63" viewBox="0 0 80 63" fill="none" xmlns="http://www.w3.org/2000/svg">
<path d="M42.9167 10.2617C44.5 9.29102 45.5556 7.52988 45.5556 5.54688C45.5556 2.48223 43.0694 0 40 0C36.9306 0 34.4444 2.48223 34.4444 5.54688C34.4444 7.54375 35.5 9.29102 37.0833 10.2617L29.125 26.1535C27.8611 28.6773 24.5833 29.3984 22.375 27.6373L10 17.75C10.6944 16.8209 11.1111 15.6699 11.1111 14.4219C11.1111 11.3572 8.625 8.875 5.55556 8.875C2.48611 8.875 0 11.3572 0 14.4219C0 17.4865 2.48611 19.9688 5.55556 19.9688H5.65278L12 54.8309C12.7639 59.0465 16.4444 62.125 20.75 62.125H59.25C63.5417 62.125 67.2222 59.0604 68 54.8309L74.3472 19.9688H74.4445C77.5139 19.9688 80 17.4865 80 14.4219C80 11.3572 77.5139 8.875 74.4445 8.875C71.375 8.875 68.8889 11.3572 68.8889 14.4219C68.8889 15.6699 69.3056 16.8209 70 17.75L57.625 27.6373C55.4167 29.3984 52.1389 28.6773 50.875 26.1535L42.9167 10.2617Z" fill="#FF9BBB"/>
</svg>

<svg xmlns="http://www.w3.org/2000/svg" width="80" height="63" fill="none" viewBox="0 0 80 63"><path fill="#ff9bbb" d="M42.917 10.262a5.54 5.54 0 0 0 2.639-4.715A5.55 5.55 0 0 0 40 0a5.55 5.55 0 0 0-5.556 5.547 5.52 5.52 0 0 0 2.64 4.715l-7.959 15.892c-1.264 2.523-4.542 3.244-6.75 1.483L10 17.75a5.54 5.54 0 0 0 1.111-3.328 5.55 5.55 0 0 0-5.555-5.547A5.55 5.55 0 0 0 0 14.422a5.55 5.55 0 0 0 5.556 5.547h.097L12 54.83a8.89 8.89 0 0 0 8.75 7.294h38.5A8.9 8.9 0 0 0 68 54.831l6.347-34.862h.098A5.55 5.55 0 0 0 80 14.422a5.55 5.55 0 0 0-5.555-5.547 5.55 5.55 0 0 0-5.556 5.547c0 1.248.417 2.399 1.111 3.328l-12.375 9.887c-2.208 1.761-5.486 1.04-6.75-1.483z"/></svg>
